svgs/droidhole.svg

<svg width="192" height="192" viewBox="0 0 192 192" fill="none" xmlns="http://www.w3.org/2000/svg">
<path d="M140.494 87.2841C120.064 88.7708 110.498 97.6799 105.911 121.664C105.784 122.326 106.349 122.924 107.017 122.828C131.636 119.297 142.95 105.02 141.543 88.1698C141.499 87.6388 141.025 87.2454 140.494 87.2841Z" stroke="black" stroke-width="8" stroke-linecap="round"/>
<path d="M105.661 122.36C99.8728 84.5757 88.1318 72.6421 51 69C54.9348 102.629 65.0424 114.482 96.5509 123.661C95.9002 114.551 80.8863 97.1673 65.9667 82.0145C82.198 96.821 90.8773 105.639 105.661 122.36Z" stroke="black" stroke-width="8" stroke-linecap="round" stroke-linejoin="round"/>
<path d="M154.438 44.8595C163.753 107.316 143.15 156.316 96.549 169.918C96.3653 169.971 96.1651 169.97 95.9819 169.915C50.9503 156.324 28.781 111.245 38.0956 44.8678C38.146 44.5085 38.3889 44.199 38.7276 44.0691L95.9068 22.1374C96.1373 22.0489 96.3925 22.0489 96.623 22.1374L153.808 44.0712C154.143 44.2 154.385 44.5038 154.438 44.8595Z" stroke="black" stroke-width="12" stroke-linecap="round"/>
</svg>

<svg width="192" height="192" viewBox="0 0 192 192" fill="none" xmlns="http://www.w3.org/2000/svg"><path d="M140.494 87.284c-20.43 1.487-29.996 10.396-34.583 34.38a.988.988 0 0 0 1.106 1.164c24.619-3.531 35.933-17.808 34.526-34.658a.979.979 0 0 0-1.049-.886Z" stroke="#000" stroke-width="8" stroke-linecap="round"/><path d="M105.661 122.36C99.873 84.576 88.131 72.642 51 69c3.935 33.629 14.042 45.482 45.55 54.661-.65-9.11-15.664-26.494-30.583-41.647 16.231 14.807 24.91 23.625 39.694 40.346Z" stroke="#000" stroke-width="8" stroke-linecap="round" stroke-linejoin="round"/><path d="M154.438 44.86c9.315 62.456-11.288 111.456-57.889 125.058a1.013 1.013 0 0 1-.567-.003C50.95 156.324 28.78 111.245 38.096 44.868c.05-.36.293-.669.632-.799l57.179-21.932a1 1 0 0 1 .716 0l57.185 21.934c.335.129.577.433.63.788Z" stroke="#000" stroke-width="12" stroke-linecap="round"/></svg>
